X:36
T:Brookie the Wheaton is Pregnant
C:Robin Beech
Z:robin.beech@mcgill.ca
R:polka
M:2/4
L:1/8
K:D
f2 f>e | dA3 | g2g>f | eB3 | Ac ea | ge cA |1 de f>d | BA3 :|2 fg e>d | cd3 ::
fA Bd | gB da | fA df | e>c BA| fA Bd | gB da | fg e>d | cd3 :|
